X:462
T:He mandu 's truagh nach digeadh
N:Waulking song
S:LP, 'Music from the Western Isles'
Z:Nigel Gatherer
M:2/4
L:1/8
K:G dorian
G2 Ac | (3BAG AF  | G2  Ac  | (3BAG AF  |
G2 Ac |   C>D F<G | c>c B<G |   A>G FD  |
C2 DF |   A>G F<D | C2  F2  |   G2  G2 |]
<end>
<start>
